markets/JPY.svg

<svg width="42" height="42" viewBox="0 0 42 42" fill="none" xmlns="http://www.w3.org/2000/svg">
<circle cx="21" cy="21" r="21" fill="#06061B"/>
<path d="M14.9101 25.7434V23.7439H19.2653V21.6621H14.9101V19.6626H17.7588L13.2392 11.5273H17.0466L21.1279 18.9504L25.0722 11.5273H28.8248L24.3053 19.6626H27.1266V21.6621H22.7714V23.7439H27.1266V25.7434H22.7714V30.5643H19.2653V25.7434H14.9101Z" fill="white"/>
</svg>

<svg xmlns="http://www.w3.org/2000/svg" width="42" height="42" fill="none"><circle cx="21" cy="21" r="21" fill="#06061B"/><path fill="#fff" d="M14.91 25.743v-2h4.355v-2.08H14.91v-2h2.849l-4.52-8.136h3.808l4.08 7.423 3.945-7.423h3.753l-4.52 8.136h2.822v2H22.77v2.08h4.356v2H22.77v4.821h-3.506v-4.82H14.91Z"/></svg>
